src/xmb/monochrome/Benesse - Pocket Challenge W.svg

<svg enable-background="new 0 0 64 64" viewBox="0 0 64 64" xmlns="http://www.w3.org/2000/svg"><g fill="#fff"><ellipse cx="26.5" cy="35.5" rx="1.5" ry="1"/><ellipse cx="26.5" cy="39.5" rx="1.5" ry="1"/><ellipse cx="33.5" cy="35.5" rx="1.5" ry="1"/><ellipse cx="33.5" cy="39.5" rx="1.5" ry="1"/><circle cx="26.5" cy="43.5" r="1"/><circle cx="33.5" cy="43.5" r="1"/><path d="m18.536 42.828-2.829-2.828 2.828-2.828c.195-.195.195-.512 0-.707s-.512-.195-.707 0l-2.828 2.828-2.828-2.828c-.195-.195-.512-.195-.707 0s-.195.512 0 .707l2.828 2.828-2.828 2.828c-.195.195-.195.512 0 .707s.512.195.707 0l2.828-2.828 2.828 2.828c.195.195.512.195.707 0 .196-.195.196-.511.001-.707z"/><path d="m60 20c0-2.209-.791-4-3-4h-50c-2.209 0-3 1.791-3 4l-1 22c0 3.866 3.134 7 7 7h44c3.866 0 7-3.134 7-7zm-53 14h-1c-.552 0-1-.448-1-1s.448-1 1-1h1c.552 0 1 .448 1 1s-.448 1-1 1zm8 12c-3.314 0-6-2.686-6-6s2.686-6 6-6 6 2.686 6 6-2.686 6-6 6zm28.25-2.053c-.365.729-1.096 1.203-1.912 1.203-1.586 0-2.6-1.671-1.891-3.089.549-1.097 1.226-2.123 2.007-3.061l3.162 2.81c-.529.666-.989 1.382-1.366 2.137zm2.019-2.947-3.151-2.801c1.728-1.832 3.887-3.263 6.302-4.144l1.839 3.679c-1.915.663-3.63 1.809-4.99 3.266zm7.731 4c-1.105 0-2-.895-2-2s.895-2 2-2 2 .895 2 2-.895 2-2 2zm1-7.904c-.949 0-1.875.124-2.767.349l-1.853-3.707c1.47-.436 3.021-.675 4.62-.675v.033c1.105 0 2 .895 2 2s-.895 2-2 2zm0-6.096h-42c-1.657 0-3-3.134-3-7s1.343-7 3-7h42c1.657 0 3 3.134 3 7s-1.343 7-3 7z"/></g></svg>

<svg xmlns="http://www.w3.org/2000/svg" viewBox="0 0 64 64"><g fill="#fff"><ellipse cx="26.5" cy="35.5" rx="1.5" ry="1"/><ellipse cx="26.5" cy="39.5" rx="1.5" ry="1"/><ellipse cx="33.5" cy="35.5" rx="1.5" ry="1"/><ellipse cx="33.5" cy="39.5" rx="1.5" ry="1"/><circle cx="26.5" cy="43.5" r="1"/><circle cx="33.5" cy="43.5" r="1"/><path d="M18.536 42.828 15.707 40l2.828-2.828a.5.5 0 0 0-.707-.707L15 39.293l-2.828-2.828a.5.5 0 0 0-.707.707L14.293 40l-2.828 2.828a.5.5 0 0 0 .707.707L15 40.707l2.828 2.828a.5.5 0 0 0 .708-.707"/><path d="M60 20c0-2.209-.791-4-3-4H7c-2.209 0-3 1.791-3 4L3 42a7 7 0 0 0 7 7h44a7 7 0 0 0 7-7zM7 34H6a1 1 0 0 1 0-2h1a1 1 0 0 1 0 2m8 12a6 6 0 1 1 0-12 6 6 0 0 1 0 12m28.25-2.053a2.15 2.15 0 0 1-1.912 1.203c-1.586 0-2.6-1.671-1.891-3.089A16 16 0 0 1 41.454 39l3.162 2.81a12.2 12.2 0 0 0-1.366 2.137M45.269 41l-3.151-2.801a16.4 16.4 0 0 1 6.302-4.144l1.839 3.679A12.4 12.4 0 0 0 45.269 41M53 45a2 2 0 1 1-.001-3.999A2 2 0 0 1 53 45m1-7.904c-.949 0-1.875.124-2.767.349l-1.853-3.707a16.2 16.2 0 0 1 4.62-.675v.033a2 2 0 1 1 0 4M54 31H12c-1.657 0-3-3.134-3-7s1.343-7 3-7h42c1.657 0 3 3.134 3 7s-1.343 7-3 7"/></g></svg>
